X:1
T: Molly McGuire's Reel
C:
R:Reel
Q: 232
K:E
M:4/4
L:1/8
|:ec|B2 GB EB GB|EB GB cF Fc|B2 GB EB GB|Bc ef ge ec|
B2 GB EB GB|EB GB cF Fc|B2 GB EB GB|Bc ef ge e2|
|:Be ge be ge|Be ge af f2|Be ge be ge|Bc ef ge e2|
Be ge be ge|Be ge af f2|gb fg e2 ec|Bc ef ge e2:|
B2 GB EB GB|EB GB cF Fc|B2 GB EB GB|Bc ef ge ec|
B2 GB EB GB|EB GB cF Fc|B2 GB EB GB|Bc ef ge e2||
